!!!COM: Ernest Chausson
!!!CNT: Francais
!!!TXO: Francais
!!!OTL: Nocturne
!!!OPS: Op. 8
!!!ONM: No. 1
!!!LYR: Maurice Bouchor
!!!ENC: Jacob Pegg
!!!YOR: 20 Songs for Voice and Piano, International Music Company, New York City, January, 1952
!!!ODT: 1886/
!!NB: Vocal melody and text only encoded.
**kern	**silbe
*clef G2	*
*k[]	*
*M4/4	*
=3	=3
4r	.
{4e	{La
[2g	nuit
=4	=4
4g]	|
4g	e/-
4g	-tait
4g	pen-
=5	=5
[1cc	-sive
=6	=6
2cc]	|
[2e	et
=7	=7
2e]	|
4d	te/-
4c	-ne/-
=8	=8
[2c	-breu-
4c_	-se;
8c]}	|}
8r	.
=9	=9
1r	.
=10	=10
8r	.
{8e-	{a\
2g	pei-
4g	-ne
=11	=11
8r	.
8g	Quel
8g	ques
8g	e/-
4g	-pin-
4g	-gles
=12	=12
4a-	d'or
8e-	scin-
8d-	-till-
6c	-aient
6e-	dans
6a-	l'e/-
=13	=13
4.a-	-be\-
8a-	-ne
8cc	De
8cc	ses
8b-	grands
8a-	che-
=14	=14
2cc	veux
4cc	de/-
4cc	-rou-
=15	=15
[2cc	-le/s
4cc_	|
8cc]}	|}
8r	.
=16	=16
4r	.
{2g	{Qui,
4a	sur
=17	=17
2.g	nous,
8g	sur
8a	la
=18	=18
8b	mer
8cc	loin-
2.b}	-taine}
=19	=19
4r	.
{4ee	{et
4g	sur
4a	la
=20	=20
[2b	terre
8b]	|
8g#	En-
8f#	-se-
8e	-ve-
=21	=21
4e}	-lie}
{4e	{en
4f#	un
4g#	som-
=22	=22
4a	-meil
4a	plein
4b	de
4cc	mys-
=23	=23
[2cc	-te\-
4cc]	|
8a-}	-re,}
8r	.
=24	=24
{8a-	{Se-
8a-	-cou-
[2.a-	-aient
=25	=25
4a-]	|
2a-	des
4a-	par-
=26	=26
2e	-fums
2d	ai-
=27	=27
[2c	-le/s.
4c]}	|}
4r	.
=32	=32
8r	.
{8e-	{Et
8e-	no-
8e-	-tre
4e-	jeune
4e-	a-
=33	=33
2.g	-mour
4g	nais-
=34	=34
4.a-	-sant
8a-	de
4a-	nos
4a-	pen-
=35	=35
[2g	-se/-
8g]}	-es,}
8r	.
{8f	{S'ev-
8f	-eil-
=36	=36
2g	-lait
4g	sur
4a-	le
=37	=37
4cc	lit
8b-	de
8a-	cent
4g	ro-
8f	-ses
8f	gla-
=38	=38
4e	-ce/-
4e}	-es}
{4f	{Qui
4g	n'a-
=39	=39
4a-	-vaient
8f	res-
8e-	-pi-
4d-	-re/
4d-	qu'un
=40	=40
[2g	jour;
4g_	|
8g]}	|}
8r	.
=42	=42
8r	.
{8e	{Et
[4e	moi,
8e]}	|}
8r	.
4r	.
=43	=43
8r	.
{8f	{Je
8f	lui
8f	di-
[4e	-sais,
8e]}	|}
8r	.
=44	=44
{4c	{pa^le
8d-	et
8d-	trem-
4f	-blant
4f	de
=45	=45
2g	fie\-
4g}	-vre}
4r	.
=46	=46
{4a-	{Que
8a-	nous
8a-	mour-
4dd-	-rions
4dd-	tous
=47	=47
2.d-	deux
8d-	le
8d-	sou-
=48	=48
2cc	-rire
4cc	a\
4cc	la
=49	=49
2cc	le\-
4f}	-vre}
4r	.
=50	=50
4r	.
{4cc	{En
4b-	me^-
4a-	-me
=51	=51
[1g	temps
=52	=52
4g]	|
4g	que
4g	notre
4g	a-
=53	=53
[2g	-mour
4g_	|
8g]}	|}
8r	.
*-	*-

